X:742
M:6/8
L:1/8
K:D
f/d/|d2A dfe|d3 A2B|=cdc cGE|=c3 E2^c|d2A dfe|d3 A2G|FDF ECE|D3 D2:|
|:f/g/|d2g faf|d3 A2B|=cdc cGE|=c3 E2^c|d2A dfe|d3 A2G|FDF ECE|D3 D2:|
f/g/|aba fdf|a3 g2f|gag e=ce|g3 efg|aba fdf|a3 g2 f/g/|fdf ece|d3 D2 f/g/|aba
fdf|
aba fdf|gag e=ce|gag e=ce|aba fdf|aba gab|fga gfe|d3 D2||

of the Athole Collection, 1884, by James Stewart-Robertson.

